X:1
T:the Flail
T:Cathal's Favourite
C:Vincent Broderick
R:jig
D:Cian: Three Shouts From A Hill
Z: Jeff Lindqvist <jeff_lindqvist:SPRAY.SE> irtrad-l 2001-4-01
M:6/8
L:1/8
K:G
DEG GAB | deg gab | age ege | dBG AGE |
DEG GAB | deg gab | age ege |1 dBG AGE :|2 dBG ABd ||
|: ~e2a aga | ~e2a aga | ~d2g ged | ged BGE |
DEG GAB | deg gab | age ege |1 dBG ABd :|2 dBG AGE ||
